X:2211 
T:Carval y Nollick
T:Carol: A vision of things to come
T:My chaarjyn deyr ta ayns shoh noght 
N:Latter title from Journal of Folk Song Society - Vol/issue not specified 
C:Traditional
O:Isle of Man
Z:Clague collection
N:Moore, page 31. [C.G.] Time signature given as 2/4 3/4
B:Kiaull Vannin #211 
L:1/4
M:3/4 
K:G 
G D/E/ F|G2 A|B c|d2 e|d B/A/|G B|A2 A/c/|
B A|G2 G|A B|c2 d/c/|B c/B/|A3/2 G/F|G2||

